icon-themes/sifr_svg/cmd/lc_deletecolumns.svg

<svg viewBox="0 0 24 24" xmlns="http://www.w3.org/2000/svg"><g fill="#555753"><path d="m8 4v6h8v-6zm0 10v6h8v-6z" opacity=".35"/><path d="m22 2h-20v20h20zm-2 2v4h-3v-4zm0 5v6h-3v-6zm0 7v4h-3v-4zm-4-12v16h-8v-16zm-1 7h-6v2h6zm-8-7v4h-3v-4zm0 5v6h-3v-6zm0 7v4h-3v-4z"/></g></svg>

<?xml version="1.0" encoding="UTF-8" standalone="no"?>
<svg
   xmlns:dc="http://purl.org/dc/elements/1.1/"
   xmlns:cc="http://creativecommons.org/ns#"
   xmlns:rdf="http://www.w3.org/1999/02/22-rdf-syntax-ns#"
   xmlns:svg="http://www.w3.org/2000/svg"
   xmlns="http://www.w3.org/2000/svg"
   xmlns:sodipodi="http://sodipodi.sourceforge.net/DTD/sodipodi-0.dtd"
   xmlns:inkscape="http://www.inkscape.org/namespaces/inkscape"
   viewBox="0 0 24 24"
   version="1.1"
   id="svg8"
   sodipodi:docname="lc_deletecolumns.svg"
   inkscape:version="0.92.4 (unknown)">
  <metadata
     id="metadata14">
    <rdf:RDF>
      <cc:Work
         rdf:about="">
        <dc:format>image/svg+xml</dc:format>
        <dc:type
           rdf:resource="http://purl.org/dc/dcmitype/StillImage" />
        <dc:title></dc:title>
      </cc:Work>
    </rdf:RDF>
  </metadata>
  <defs
     id="defs12" />
  <sodipodi:namedview
     pagecolor="#ffffff"
     bordercolor="#666666"
     borderopacity="1"
     objecttolerance="10"
     gridtolerance="10"
     guidetolerance="10"
     inkscape:pageopacity="0"
     inkscape:pageshadow="2"
     inkscape:window-width="1366"
     inkscape:window-height="706"
     id="namedview10"
     showgrid="true"
     inkscape:zoom="13.906433"
     inkscape:cx="-3.1211405"
     inkscape:cy="12.846276"
     inkscape:window-x="0"
     inkscape:window-y="0"
     inkscape:window-maximized="1"
     inkscape:current-layer="svg8">
    <inkscape:grid
       type="xygrid"
       id="grid821" />
  </sodipodi:namedview>
  <g
     fill="#555753"
     id="g6">
    <path
       d="M 8 4 L 8 10 L 16 10 L 16 4 L 8 4 z M 8 14 L 8 20 L 16 20 L 16 14 L 8 14 z "
       id="path2"
       style="fill:#555753;fill-opacity:1;opacity:0.35" />
    <path
       d="M 22,2 H 2 V 22 H 22 Z M 20,4 V 8 H 17 V 4 Z m 0,5 v 6 H 17 V 9 Z m 0,7 v 4 H 17 V 16 Z M 16,4 V 20 H 8 V 4 Z m -1,7 H 9 v 2 h 6 z M 7,4 V 8 H 4 V 4 Z m 0,5 v 6 H 4 V 9 Z m 0,7 v 4 H 4 v -4 z"
       id="path4"
       inkscape:connector-curvature="0"
       sodipodi:nodetypes="ccccccccccccccccccccccccccccccccccccccccccccc"
       style="fill:#555753;fill-opacity:1" />
  </g>
</svg>
